X: 1625
T: Anne Lacey's
R: reel
M: 4/4
K: Edorian
e2ed egef|gedB AGBd|e2ed egba|gedB AGGE|
A2AG ABde|gedB eBde|eE~E2 EGBe|1 gedB eBde:|2 gedB e4||
|:e3d BAGA|BAGA Be~e2|cada eade|gedb agbd|
e3d- dAGA|bage dBeB|A2AG ABde|gedB eBde:|

